svgs/sharp-solid/cabin.svg

<svg xmlns="http://www.w3.org/2000/svg" viewBox="0 0 512 512"><!--! Font Awesome Pro 6.6.0 by @fontawesome - https://fontawesome.com License - https://fontawesome.com/license (Commercial License) Copyright 2024 Fonticons, Inc. --><path d="M0 176l0 48 384 0 96 0 32 0 0-48-32-22 0-122-96 0 0 56L256 0 0 176zm192 80L32 256l0 64 160 0 0-64zM32 352l0 64 160 0 0-64L32 352zm0 96l0 64 160 0 0-64L32 448zM320 256l0 64 160 0 0-64-160 0zM480 448l-160 0 0 64 160 0 0-64zM320 352l0 64 160 0 0-64-160 0zM256 96a32 32 0 1 1 0 64 32 32 0 1 1 0-64z"/></svg>

<svg xmlns="http://www.w3.org/2000/svg" viewBox="0 0 512 512"><!--! Font Awesome Pro 6.4.0 by @fontawesome - https://fontawesome.com License - https://fontawesome.com/license (Commercial License) Copyright 2023 Fonticons, Inc. --><path d="M0 176v48H384h96 32V176l-32-22V32H384V88L256 0 0 176zm192 80H32v64H192V256zM32 352v64H192V352H32zm0 96v64H192V448H32zM320 256v64H480V256H320zM480 448H320v64H480V448zM320 352v64H480V352H320zM256 96a32 32 0 1 1 0 64 32 32 0 1 1 0-64z"/></svg>
